packages/components/src/telekom/icons/weather/overcast/selected.svg

<?xml version="1.0" encoding="UTF-8"?>
<svg width="24px" height="24px" viewBox="0 0 24 24" version="1.1" xmlns="http://www.w3.org/2000/svg" xmlns:xlink="http://www.w3.org/1999/xlink">
    <title>icon/weather/overcast/selected</title>
    <g id="icon/weather/overcast/selected" stroke="none" stroke-width="1" fill="none" fill-rule="evenodd">
        <path d="M15.2881452,11.3838603 C16.4211263,11.3838603 17.5141081,11.759354 18.4085932,12.4498425 C18.6210896,12.4048433 18.8290862,12.3828436 19.0360827,12.3828436 C20.7260546,12.3828436 22.1210313,13.6708222 22.2905285,15.3167947 C23.3430109,15.9692838 24,17.1267646 24,18.3857436 C24,20.3144211 22.4819192,21.8947173 20.5777248,21.994665 L20.3860602,21.9996833 L12.4316928,21.9996833 C10.2637289,21.9996833 8.50025833,20.2357127 8.50025833,18.0677489 C8.50025833,16.6377727 9.28274529,15.3237946 10.5207247,14.6348061 C11.2862119,12.6773387 13.1631806,11.3838603 15.2881452,11.3838603 Z M11.8512025,1.25952901 C14.7246546,1.25952901 17.2566124,3.05049916 18.239596,5.74495425 C19.9260679,6.63343944 21.00005,8.39991 21.00005,10.3273779 C21.00005,10.7183714 20.9530508,11.098365 20.8705522,11.4653589 C20.3080615,11.219863 19.6875719,11.0828653 19.0360827,11.0828653 C18.9370844,11.0828653 18.837086,11.0863652 18.7370877,11.0933651 C17.7111048,10.439376 16.5061249,10.0838819 15.2881452,10.0838819 C12.777687,10.0838819 10.5482242,11.5063582 9.48974184,13.7448209 C8.9039391,14.1433768 8.41690034,14.6544776 8.04235873,15.236924 L7.88876852,15.4907918 L4.44282595,15.4867919 C1.97186714,15.3552941 0.000399993333,13.2968284 0.000399993333,10.7773704 C0.000399993333,9.06889885 0.922884619,7.50142498 2.38386027,6.66893885 C2.50835819,4.44397593 4.34632756,2.67300545 6.5877902,2.67300545 C6.91728471,2.67300545 7.24627923,2.71300478 7.57077382,2.79250346 C8.78325361,1.80151997 10.2892285,1.25952901 11.8512025,1.25952901 Z" id="Shape" fill="#262626"></path>
    </g>
</svg>

<svg width="24" height="24" xmlns="http://www.w3.org/2000/svg"><path d="M15.288 11.384c1.133 0 2.226.375 3.12 1.066.213-.045.421-.067.628-.067a3.276 3.276 0 013.255 2.934A3.614 3.614 0 0124 18.386a3.618 3.618 0 01-3.422 3.609l-.192.005h-7.954A3.936 3.936 0 018.5 18.068c0-1.43.783-2.744 2.02-3.433a5.104 5.104 0 014.768-3.251zM11.851 1.26a6.788 6.788 0 016.389 4.485A5.188 5.188 0 0121 10.327c0 .391-.047.771-.13 1.138a4.576 4.576 0 00-2.133-.372 6.444 6.444 0 00-3.449-1.01 6.375 6.375 0 00-5.798 3.662 5.203 5.203 0 00-1.448 1.492l-.153.254-3.446-.004C1.972 15.355 0 13.297 0 10.777 0 9.07.923 7.501 2.384 6.67c.124-2.225 1.962-3.996 4.204-3.996.33 0 .658.04.983.12a6.755 6.755 0 014.28-1.533z" fill="#000" fill-rule="evenodd"/></svg>
